X:348
T: Dandy O
N: O'Farrell's Pocket Companion v.4 (Sky ed. p.151)
N: "Irish"
M: C
L: 1/8
Q: 320
R: hornpipe
K: D
A| Addd dcBA| d2de dcBA| Addc dfaf| ecA2 A3f|
gefg a2 f>e| dcAG GFGA| BcdB ecAG| FA d2 d3 :|
A| FAde d2 (3ABc| Bd G2 G3B| egfa gfed| ecA2 A3g|
fefg afed| dBAG GFGA| BcdB edcB| A2d2d2 :|
